src/assets/icons/globe.svg

<svg width="14" height="14" viewBox="0 0 14 14" fill="none" xmlns="http://www.w3.org/2000/svg">
<g id="globe">
<g clip-path="url(#clip0_156_4637)">
<path id="Vector" fill-rule="evenodd" clip-rule="evenodd" d="M5.62721 1.32912C3.25126 1.90223 1.44239 3.9297 1.19547 6.41667H3.33409C3.51285 4.57053 4.50704 2.79574 5.62721 1.32912ZM7 0C3.13401 0 0 3.13401 0 7C0 10.866 3.13401 14 7 14C10.866 14 14 10.866 14 7C14 3.13401 10.866 0 7 0ZM8.37279 1.32912C9.49296 2.79574 10.4872 4.57053 10.6659 6.41667H12.8045C12.5576 3.9297 10.7487 1.90223 8.37279 1.32912ZM9.49256 6.41667C9.28857 4.69829 8.22495 2.95467 7 1.47825C5.77505 2.95467 4.71143 4.69829 4.50744 6.41667H9.49256ZM4.50744 7.58333H9.49256C9.28857 9.30171 8.22495 11.0453 7 12.5217C5.77505 11.0453 4.71143 9.30171 4.50744 7.58333ZM3.33409 7.58333H1.19547C1.44239 10.0703 3.25126 12.0978 5.62721 12.6709C4.50704 11.2043 3.51285 9.42947 3.33409 7.58333ZM8.37279 12.6709C9.49296 11.2043 10.4872 9.42947 10.6659 7.58333H12.8045C12.5576 10.0703 10.7487 12.0978 8.37279 12.6709Z" fill="black"/>
</g>
</g>
<defs>
<clipPath id="clip0_156_4637">
<rect width="14" height="14" fill="white"/>
</clipPath>
</defs>
</svg>

<svg xmlns="http://www.w3.org/2000/svg" fill="none" viewBox="0 0 14 14"><g clip-path="url(#a)"><path fill="#000" fill-rule="evenodd" d="M5.627 1.33a5.84 5.84 0 0 0-4.432 5.087h2.14c.178-1.846 1.172-3.621 2.292-5.088M7 0a7 7 0 1 0 0 14A7 7 0 0 0 7 0m1.373 1.33c1.12 1.466 2.114 3.24 2.293 5.087h2.139a5.84 5.84 0 0 0-4.432-5.088m1.12 5.087C9.289 4.698 8.225 2.955 7 1.478c-1.225 1.477-2.289 3.22-2.493 4.939zM4.507 7.583h4.986C9.289 9.302 8.225 11.045 7 12.522c-1.225-1.477-2.289-3.22-2.493-4.939m-1.173 0H1.195a5.84 5.84 0 0 0 4.432 5.088c-1.12-1.467-2.114-3.242-2.293-5.088m5.039 5.088c1.12-1.467 2.114-3.242 2.293-5.088h2.139a5.84 5.84 0 0 1-4.432 5.088" clip-rule="evenodd"/></g><defs><clipPath id="a"><path fill="#fff" d="M0 0h14v14H0z"/></clipPath></defs></svg>
